X:272
T: MIR GEFAELLT DAS EHSTANDSLEBEN BESSER
N: E0868
O: Europa, Mitteleuropa, Deutschland, Hessen, Odenwald; Bergstrasse
R: Hochzeits -, Ehestands - Lied
M: 2/4
L: 1/16
K: G
 | G4D4 | E2G2F2G2 | A3BA4 | G4A4 |
B2dedcBAB2G2 | E4F4 | G4z4 |
B4d4c2c2 | A3GF2G2A4
G4A4 | B2dedcBAB2G2 | E4F4 | G4z4

@@@ Tune index: 4585
